X: 23602
T: Lilly, The
R: reel
M: 4/4
K: Amajor
|:a2 ae f2 ed|c2 cA B2A2|
a2 ae f2 ed|cdcB A4:|
cAeA cAef|edcB A4:|
c2 cA B2 ef|edcB A4:|

